X:1
T:John Jacob Jingleheimer Schmidt
M:4/4
L:1/8
K:E
 G4 F2 E2| CA AA A4| A A2 A B2 F2| G6 z C| B,G GG G3 E| CA AA A2 GA|\
 B2 B3/2 c/2 BA GF| EB BB BA GF|
